X:1
T:Symphony No. 6 in F Major
T:"Pastoral" First Movement 
T:Ludwig van Beethoven
T:Arranged for piano by Franz Liszt
%%score { ( 1 4 6 ) | ( 2 3 5 ) }
L:1/8
Q:1/4=112
M:2/4
K:F
V:1 treble nm="Piano"
V:4 treble 
V:6 treble 
V:2 bass 
V:3 bass 
V:5 bass 
V:1
"^Allegro ma non troppo" z AB.d | cB/A/ .G.C | F[EG] [FA][Q:1/4=72]"^rit."[GB]/[FA]/ | %3
[Q:1/4=52]!pp! !fermata![EG]4 |!p![Q:1/4=112]"^a tempo" z A,B,D | z G/A/ BG | A!pp! x x!p! B | %7
 GG/A/ BG |!<(! A2 [CFc]2 | [CEB]3 [CFA]!<)! |!f! [FBd]2 [CAc]2 | GG/A/ BG | [CFA]2 [CFc]2 | %13
 [CGB]3 [CFA] | [Bd]2 [Ac]2 | GG/A/!p! .B"_cresc.".=B | [Cc]G/A/ ._B.=B | [Cc]G/A/ ._B.=B | %18
 [Cc]G/A/ ._B.=B | [Cc]G/A/ ._B!f!.=B |"_dim." cG/A/ .B.=B | [Cc]G/A/ ._B.=B | [Cc]G/A/ ._B.=B | %23
 [Cc]G/A/ ._B.=B |!pp! .c!<(!G/A/ ._B.=B | .cA/_B/ .c.^c | .dB/=c/ .d.e | .fd/e/ .f.[Gg]!<)! | %28
!p! .[Aa] .a.b.d' | .c'b/a/ .g.c | .f.g [fa][gb]/[fa]/ | .[eg].[fa] [gb][ac']/[gb]/ | %32
!p! [fb]"_cresc." !arpeggio![Ac']!arpeggio![Bc']!arpeggio![dc'] | c' .c.c.c | .c.[Cc].[Cc].[Cc] | %35
 .[Cc].[Cc] .[Cc].[Cc] |!f! .[Aa] .[Afa].[Bgb].[dbd'] | [cac'][Bgb]/[Afa]/ .[Geg].[Cc] | %38
 .[Ff].[Geg] [Afa][Bgb]/[Afa]/ | .[Geg].[Afa] [Bgb][cac']/[Bgb]/ |!ff! [Afa][cac'].[cac'].[cac'] | %41
 !^![cac']2 [Bgb]/[Afa]/[Geg]/[Fdf]/ | .[Ece].[Fdf] [Geg][Afa]/[Geg]/ | %43
 .[Fdf].[Geg] [Afa][Bgb]/[Afa]/ | [Geg][Bgb].[Bgb].[Bgb] | !^![Bgb]2 [cac']/[Bgb]/[Afa]/[Geg]/ | %46
 .[Afa].[Bgb] [cac'][dbd']/[cac']/ | bc'/b/ gc'/b/ | .[Afa].[Bgb] [cac'][dbd']/[cac']/ | %49
 bc'/b/ gc'/b/ | ac'/b/ gc'/b/ | ac'/b/ gc'/b/ | (3a!p! .[FA]!<(!.[FA] (3.[FA].[FA].[FA]!<)! | %53
!f! .[FA]!p! (FG).B | .A (de).g | .f (fg).b | (3[Afa]!<(! .[FA].[FA] (3.[FA].[FA].[FA]!<)! | %57
!f! .[FA]!p! FG.B | .A de.g | .f fg.b | (3[Afa]!<(! .[CFA].[CFA] (3.[CFA].[CFA].[CFA]!<)! | %61
!f! .[CFA]!p! fg.a | (3.[Gfg]!<(! .[FG].[FG] (3.[FG].[FG].[FG]!<)! |!f! .[FG]!p! ^fg.a | %64
 .g!pp!^fg.a | .g^fg.a | g=fd=B | Gd=BG | agec | GecG | AGFD | G,FDG, | AGEC | G,EC!pp!G, | %74
!pp! G4- | G4 | c4- | c4 |!p! =B2 B2 | =B2 dB | c2 c2 | c2 ec | =b2 b2 | =b2 d'b |!mp! c'2 c'2 | %85
 c'2 (3e'xc' |!mf! z/"_cresc." a'g'f'd'/- | d'/gf'd'g/ | z/ a'g'e'c'/- | c'/ge'c'g/ | %90
 z/ a'g'f'd'/- | d'/gf'd'g/ |!f!!8va(! [ge'g']3 [af'a']/[=bg'=b']/ | %93
 [c'a'c''][=bg'=b']/[af'a']/ [ge'g'][af'a']/[bg'b']/ | %94
 [c'a'c''][=bg'=b']/[af'a']/ [ge'g'][af'a']/[bg'b']/ | .[c'a'c'']!8va)! z z2 | %96
!p! [ac']2 [g=b][fa] | [eg]2 [df][ce] | [ce][=Bd][Ac][Bd] |!ff!!8va(! [ge'g']3 [af'a']/[=bg'=b']/ | %100
 [c'a'c''][=bg'=b']/[af'a']/ [ge'g'][af'a']/[bg'b']/ | %101
 [c'a'c''][=bg'=b']/[af'a']/ [ge'g'][af'a']/[bg'b']/ | .[c'a'c'']!8va)! z z2 |!p! [Ac]2 [G=B][FA] | %104
 [EG]2 [DF][CE] |[K:bass] [CE][=B,D][F,A,C][B,D] |!p! [CE][K:treble]"_cresc." [cec'][cfc'][cgc'] | %107
 [cac'][cac'][=Bg=b][Afa] | [Geg][Geg][Fdf][Ece] | G2 G2 | %110
!f! (3[Ece]!8va(! [c'e'c''][c'e'c''] (3[c'e'c''][c'f'c''][c'g'c''] | %111
 (3[c'a'c''][ac'][c'a'c''] (3[ac'][=bg'=b'][af'a']!8va)! | %112
 (3[ge'g'][eg][ge'g'] (3[eg][fd'f'][ec'e'] | (3[d=bd'][df][fbd'] (3[df][cec'][dfd'] | %114
!ff! !^![cec']2 z e/d/ | .ce/d/ .ca/^f/ | g2 z a/g/ | .eg/=f/ .df/e/ | !^![cec']2 z e/d/ | %119
 .ce/d/ .ca/^f/ | g2 z a/g/ | .eg/=f/ .df/e/ |"_dim." cg/e/ dg/f/ | cg/e/ dg/f/ | cg/e/ dg/f/ | %125
 cg/e/ dg/f/ |!p! c'2 G2 |"_dim." c2 G2 | c2 G2 | c2 G2 |!pp! c x x2 | C2 G,2 | C2 G,2 | C2 G,2 | %134
!p! .C CD.F | .EEF.A | .GGA.c | .B!f!AB.d :|!p! z A B.d | .cB/A/ .G.C | z A B.d | .cB/A/ .G.C | %142
 F"_cresc." FG.B | .A AB.d | .c cd.f | ._e!f! de.g |!p! z d_e.g | f d'._e'.g' | z d_e.g | %149
 f d'._e'!p!.g' |"_cresc." .BF/_E/ .D.B, | .BF/_E/ .D.B, | .BF/_E/ .D.B, | .BF/_E/ .D.B, | %154
 bf/_e/ .[FBd].[DFB] | bf/_e/ .[FBd].[DFB] | bf/_e/ .[FBd].[DFB] | bf/_e/ .[FBd].[DFB] | %158
 .dc/B/ .F.D | .dc/B/ .F.D | .dc/B/ .F.D | .dc/B/ .F.D | .a^f/e/ .[^FAd].[DFA] | %163
 .a^f/e/ .[^FAd].[DFA] | .a^f/e/ .[^FAd].[DFA] | .a^f/e/ .[^FAd].[DFA] | .^fe/d/ .A.^F | %167
 .^fe/d/ .A.^F | .^fe/d/ .A.^F | .^fe/d/ .A.^F | .d'a/g/ .[Ad^f].[^FAd] | .d'a/g/ .[Ad^f].[^FAd] | %172
 .d'a/g/ .[Ad^f].[^FAd] | .d'a/g/ .[Ad^f].[^FAd] |!ff!!8va(! !//-![ad'^f']2 a'2 | %175
 !//-![ad'^f']2 a'2 | !//-![ad'^f']2 a'2 | !//-![ad'^f']2 a'2 | !arpeggio!.[ad'^f'a']!8va)! z z2 | %179
 .dA/G/ .^F.D | z4 | .^fe/d/ .A.^F | z4 | .ag/^f/ .d.A | .ag/^f/ .d.A | .ag/^f/ .d.A |!p! z2 .d.A | %187
!p! z2 .d.A | .d.A.d.A | .d.A.d.A | z .=B.c.e | .dc/=B/ .A.D | .g4- | g/^f/e/d/ .d.d | %194
 ga [g=b][ac']/[gb]/ | a[g=b] [ac'][bd']/!p![ac']/ |"_cresc." .[gb] A/G/ .D.=B, | .=BA/G/ .D.=B, | %198
 .=BA/G/ .D.=B, | .=BA/G/ .D.=B, | .gd/c/ .[DG=B].[=B,DG] | .gd/c/ .[DG=B].[=B,DG] | %202
 .gd/c/ .[DG=B].[=B,DG] | .gd/c/ .[DG=B].[=B,DG] | .dc/=B/ .G.D | .dc/=B/ .G.D | .dc/=B/ .G.D | %207
 .dc/=B/ .G.D | .=ba/^g/ .[^G=Be].[EGB] | .=ba/^g/ .[^G=Be].[EGB] | .=ba/^g/ .[^G=Be].[EGB] | %211
 .=ba/^g/ .[^G=Be].[EGB] | .^g^f/e/ .=B.^G | .^g^f/e/ .=B.^G | .^g^f/e/ .=B.^G | .^g^f/e/ .=B.^G | %216
 .^g'^f'/e'/ .[e^g=b].[=Beg] | .^g'^f'/e'/ .[e^g=b].[=Beg] | .^g'^f'/e'/ .[e^g=b].[=Beg] | %219
 .^g'^f'/e'/ .[e^g=b].[=Beg] |!fff!!8va(! !//-![=be'^g']2 =b'2 | !//-![=be'^g']2 =b'2 | %222
 !//-![=be'^g']2 =b'2 | !//-![=be'^g']2 =b'2 | !arpeggio!.[=be'^g'=b']!8va)! z z2 | .e=B/A/ .^G.E | %226
 z4 | .^g^f/e/ .=B.^G |"_dim." z4 | .=ba/^g/ .e.=B | .=ba/^g/ .e.=B | .=ba/^g/ .e.=B | %232
!p! z2 .e.=B | z2 .e.=B | .e.=B.e.B | .e.=B.e.B | z .^c.d.^f | .ed/^c/ .=B.E | a2 z2 | %239
 a/^g/^f/e/ .e.e | .a.=b [a^c'][bd']/[ac']/ | =b^c' [bd'][c'e']/[bd']/ | [a^c']2 [c'e']2 | %243
 [=bd']3 [a^c'] | [d'^f']2 [^c'e']2 | =bb/^c'/ d'b | [a^c'] x x2 | =B,/D/A/A/ D/A/^C/A/ | %248
 A,/^F/A/A/ A,/E/A/A/ | D/A/A,/A/ A,/A/A,/A/ | A,/E/A/A/ A,/G/A/A/ | A,/^F/A/A/ A,/A/A,/A/ | %252
!p![I:staff +1] A,/!pp![I:staff -1]^F/A/A/ A,/G/A/A/ | A,/A/D/d/ D/d/D/d/ |!p! ^F2!p! A2 | G3 ^F | %256
 B2 A2 | .GG/A/ .B.G | [^FA]2!mp! [Ac]2 | [GB]3 [^FA] | [Fd]2!mp! [Ec]2 | %261
 .[D=B]B/[Ec]/ .[Fd].[DB] |!f! c'/c/c'/c/ c'/c/c'/c/ | c'/c/c'/c/ c'/c/c'/c/ | %264
 c'/c/c'/c/ c'/c/c'/c/ | c'/c/c'/ x/ c'/c/c'/c/ | c'/c/c'/c/ c'/c/c'/c/ | c'/c/c'/c/ c'/c/c'/c/ | %268
 c'/c/c'/c/ c'/c/c'/c/ | c'/c/c'/ x/ c'/c/c'/c/ | c'/c/c'/c/ c'/c/c'/c/ | c'/c/c'/ x/ c'/c/c'/c/ | %272
 c'/c/c'/c/ c'/c/c'/c/ | c'/c/c'/ x/ c'/c/c'/c/ | d'4- | d'4- | d'4- | d'4 | c'4- | c'4- | %280
 c'b/a/ g/f/e/f/ |!>(! Tg4- | g4- | g2- g>f!>)! |!pp! .g.g.c'.g | .e.g.e.c | .G.c.G.E | .C.c.B.G | %288
!pp! (3Afe (3fdB | (3Gg^f (3geB | (3Gfe (3fAd | (3Gg^f (3geB |!<(! (3Afe (3fFA | %293
 (3GCc!<)!!p! (3BcA |!>(! (3dFf!>(! (3cFf!>)!!>)! |!pp! (3Gg^f (3geB | (3Afe (3fAc | (3BGc (3BcA | %298
!mp!!>(! (3dBF (3cAF!>)! |!p! (3EcB (3.A.G.F | z4 | x G,/A,/ .B,.=B, | .CG,/A,/ .B,.=B, | %303
 EG/A/ .B.=B | .cG/A/ .B.=B | .cG/A/ .B.=B | .cG/A/ .B.=B |"_cresc." .cG/A/ .B.=B | %308
 .c A/_B/ .[Cc].[^C^c] | .[Dd] [B,B]/[=C=c]/ .[Dd].[Ee] | .[Ff] [Dd]/[Ee]/ .[Ff].[Gg] | %311
!ff! [Aa] .[Afa].[Bgb].[dbd'] | [cac'][Bgb]/[Afa]/ .[Geg].[Cc] | .[Ff].[Geg] [Afa][Bgb]/[Afa]/ | %314
 .[Geg].[Afa] [Bgb][cac']/[Bgb]/ | [Afa][cac'].[cac'].[cac'] | %316
 !^![cac']2 [Bgb]/[Afa]/[Geg]/[Fdf]/ | .[Ece].[Fdf] [Geg][Afa]/[Geg]/ | %318
 .[Fdf].[Geg] [Afa][Bgb]/[Afa]/ | [Geg][Bgb].[Bgb].[Bgb] | !^![Bgb]2 [cac']/[Bgb]/[Afa]/[Geg]/ | %321
 .[Afa].[Bgb] [cac'][dbd']/[cac']/ | bc'/b/ gc'/b/ | .[Afa].[Bgb] [cac'][dbd']/[cac']/ | %324
 bc'/b/ gc'/b/ | ac'/b/ gc'/b/ | ac'/b/ gc'/b/ | (3a!p! .[FA]!<(!.[FA] (3.[FA].[FA].[FA]!<)! | %328
!f! .[FA]!p! (FG).B | .A (de).g | .f (fg).b | (3[Afa]!<(! .[FA].[FA] (3.[FA].[FA].[FA]!<)! | %332
!f! .[FA]!p! FG.B | .A de.g | .f fg.b | (3[Afa]!<(! .[CFA].[CFA] (3.[CFA].[CFA].[CFA]!<)! | %336
!f! .[CFA]!p! fg.a | (3[Gfg]!<(! .[DFG].[DFG] (3.[DFG].[DFG].[DFG]!<)! |!f! [DFG]!p! ^fg.a | %339
 (3[Geg]!<(! .[CEG].[CEG] (3.[CEG].[CEG].[CEG]!<)! |!f! .[CEG]!p! ^fg.a | .g^fg.a | .bab.=b | %343
 .c'=bc'.d' | .c'=bc'.d' | c'_bge | cgec | d'c'af | cafc | cBGE | CGEC | dcAF | CAFC |!pp! c4- | %354
 c4 | f4- | f4 |!p! e2 e2 | e2 ge | f2 f2 | f2 af |!p! (3[ebc'][gd'][ebc'] (3[gd'][ebc'][gd'] | %362
 (3[ebc'][gd'][ebc'] (3[gd'][ebc'][gd'] |!mp! (3[fc'][ad'][fc'] (3[ad'][fc'][ad'] | %364
 (3[fc'][ad'][fc'] (3[ad'][fc'][ad'] |!mf!!8va(!"_cresc." z/ d''c''b'g'/- | g'/c'b'g'c'/ | %367
 z/ d''c''a'f'/- | f'/c'a'f'c'/ | z/ d''c''b'g'/- | g'/c'b'g'c'/ | %371
!ff! [c'a'c'']3 [d'b'd'']/[e'c''e'']/ | %372
 [f'd''f''][e'c''e'']/[d'b'd'']/ [c'a'c''][d'b'd'']/[e'c''e'']/ | %373
 [f'd''f''][e'c''e'']/[d'b'd'']/ [c'a'c''][d'b'd'']/[e'c''e'']/ | .[f'd''f'']!8va)! z z2 | %375
!p! !arpeggio![df]2 [ce][Bd] | [Ac]2 [GB][FA] | [FA][EG][DF][EG] |!ff! [CAc]3 [DBd]/[Ece]/ | %379
 [Fdf][Ece]/[DBd]/ [CAc][DBd]/[Ece]/ | [Fdf][Ece]/[DBd]/ [CAc][DBd]/[Ece]/ | .[Fdf] z z2 | %382
!p! [DF]2 [CE][B,D] |[K:bass] [A,C]2 [G,B,][F,A,] | [F,A,][E,G,][D,F,][E,G,] | %385
 [F,A,][K:treble]"_cresc." [FA][FBf][Fcf] | [Fdf][Fdf][Ece][DBd] | [CAc][CAc][B,GB][A,FA] | %388
 [A,FA][G,EG][F,DF][G,EG] | (3[A,FA] [faf'][faf'] (3[faf'][fbf'][fc'f'] | %390
 (3[fd'f'][df][fd'f'] (3[df][ec'e'][dbd'] | (3[cac'][Ac][cac'] (3[Ac][Bgb][Afa] | %392
 (3[Geg][GB][Geg] (3[GB][FAf][GBg] |!ff! !^![FAf]2 x A/G/ | .FA/G/ .Fd/=B/ | !^![Aa]2 !^!F2 | F4 | %397
 !^![FAf]2 x A/G/ | .FA/G/ .Fd/=B/ | !^![Aa]2 !^!F2 | F4 | f2 [Cc]2 | f2 [Cc]2 | f2 [Cc]2 | %404
 f2 [Cc]2 |!p! [Ff]"_dim."c/A/ Gc/B/ | Fc/A/ Gc/B/ | Fc/A/ Gc/B/ | Fc/A/ Gc/B/ | %409
!pp! F2[K:bass] [C,C]2 | [F,F]2 [C,C]2 | [F,F]2 [C,C]2 | [F,F]2 [C,C]2 | [F,F][K:treble]!p! FG.B | %414
 .AAB.d | .ccd.f | ._e!<(!de!<)!!mp!.g |!pp! z d_e.g | f d'._e'.g' | z d_e.g | f d'._e'!p!.g' | %421
!f! z .[FBd].[_EB_e].[GBg] | .[FBf]_e/d/ .c.[A,CF] | .[DFB].[_EFAc] [DFBd]_e/d/ | %424
 .[CFc].[DBd] [_EA_e]f/e/ |!p! .[Bdb].[cac'] d'_e'/d'/ | .[cac'].[dbd'] _e'f'/e'/ | %427
 (3z [bb'][bb'] [bb']2- | [bb']4- | (3[bb'][bb'][bb'] [bb']2- | [bb']4- | %431
 (3[bb'][bb'][bb'] [bb']2- | [bb']4- | (3[bb'][bb'][bb'] [bb']2- | [bb']4- | %435
 (3[bb'][bb'][bb'] [bb']2 | (3[bb'][gg'][gg'] [gg']2- | (3[gg'][ee'][ee'] [ee']2- | %438
 (3[ee'][cc'][cc'] [cc']2 |!f! !^![Af-]2 (3[Ff][Aa][Gg] | (3[Ff][Aa][Gg] (3[Ff][dd'][=B=b] | %441
 [cc']2- (3[cc'][dd'][cc'] | (3[Aa][cc'][Bb] (3[Gg][Bb][Aa] |!f! !^![Af-]2 (3[Ff][Aa][Gg] | %444
 (3[Ff][Aa][Gg] (3[Ff][dd'][=B=b] | [cc']2- (3[cc'][dd'][cc'] | (3[Aa][cc'][Bb] (3[Gg][Bb][Aa] | %447
 f2- (3[Af][Afa][Afa] | a2- (3[Afa][Afa][Afa] | [ac']2- (3[cfac'][cfac'][cfac'] | %450
 [eg]2- (3[Gceg][Gceg][Gceg] | [fa]2- (3[Afa][Afa][Afa] | a2- (3[Afa][Afa][Afa] | %453
 [ac']2- (3[cfac'][cfac'][cfac'] | [eg]2- (3[Gceg][Gceg][Gceg] | [fa]2- (3[Afa][Afa][Afa] | %456
 a2- (3[Afa][Afa][Afa] | [ac']2- (3[cfac'][cfac'][cfac'] | [ac']2- (3[cfac'][cac'][cac'] | %459
 [ac']2- (3[cac'][Bgb][Bgb] | [Bgb]2- (3[Bgb][Afa][Afa] | [Afa]2- (3[Afa][Geg][Geg] | %462
 [Geg]2- (3[Geg][Fdf][Fdf] |"_dim." [Fdf]2- (3[Fdf][Ece][Ece] | [Ece]2- (3[Ece][DBd][DBd] | %465
 [DBd]2- (3[DBd][CAc][CAc] | [CAc]2- (3[CAc][GB][GB] |!pp! B4 | =B4 |!f! ._bg/f/ .e.c | %470
 .[Acfa] z .[Gceg] z |!p! B4 | =B4 |!f! ._bg/f/ .e.c | .[Acfa] z .[Gceg] z | [FAf] z!p! AB/A/ | %476
 G z Bc/B/ | A z de/d/ |!f! (3Beg (3bge | (3f!p! FG (3ABA | (3GGA (3BcB | (3AAB (3cdc | %482
 (3Beg (3bge | (3f Ac (3fac' | (3Beg (3bge | (3fAc (3fac' | (3Beg (3bge | (3fAc (3fa!f!c' | %488
"_dim." (3fAc (3fac' | (3fAc (3fac' | (3fAc (3fac' |!pp! [Afa] .A.B.d | cB/A/ .G.C | .F.G AB/A/ | %494
 .G.A Bc/B/ | .A.B cd/c/ | .B.c.d.e | .f.g ab/a/ | .g.a bc'/b/ | .a.b c'd'/c'/ | %500
!>(! .b.c'.d'.e'!>)! |!ppp! .f' z z2 |!p! .B.c.d.e | .f z z2 |!f! .[Bb].[cc'].[dd'].[ee'] | %505
 [fac'f']4 | [gc'e'g']4 | [ac'f'a']4 |!f! [ac'f'a']2 [ac'f'a']2 | [ac'f'a']4 |!pp! [A,CFA]4 | %511
 [A,CFA]4 |] %512
V:2
!p! [F,,C,]4- | [F,,C,]4- | [F,,C,]4 | !fermata![C,,C,]4 | F,2 D,2 | E,3 C, | F,2 [D,B,]2 | %7
 E,3 C, | F,2 A,2 | G,3 F, | B,,2 F,2 | [C,C]4 | [F,,C,A,]2 [A,,C,F,]2 | [G,,C,G,]3 [F,,C,A,] | %14
!p! [B,,F,B,]2 [F,,C,A,]2 | [C,G,C]3 [C,,C,] | [C,G,]3 [C,,C,] | [C,G,]3 [C,,C,] | %18
 [C,G,]3 [C,,C,] |!f! .G,G,/A,/ .B,=B, | C2 x [C,,C,] | [C,G,]3 [C,,C,] | [C,G,]3 [C,,C,] | %23
 [C,G,]3 [C,,C,] | [C,G,] z z2 | z A,/B,/ .C.^C | .DB,/=C/ .D.E | .FD/E/ .F z | %28
!pp!!ped! !//-!F,,2 C,2 | !//-!F,,2 C,2 | !//-!F,,2 C,2 | !//-!F,,2 C,2!ped-up! | %32
!p!!ped! x .F,.G,.B,!ped-up! | A,G,/F,/ .E,.C, | .F,.E, F,G,/F,/ | E,F, G,A,/G,/ | %36
!f! F,!ped! [F,,,C,,]/F,,/[F,,,C,,]/F,,/[F,,,C,,]/F,,/!ped-up! | %37
!ped! !//-![F,,,C,,]2!ped-up! F,,2 | !//-![F,,,C,,]2!ped! F,,2!ped-up! | %39
 !//-![F,,,C,,]2!ped! F,,2!ped-up! |!ped! !arpeggio![F,,,C,,F,,] [A,C][A,C][A,C]!ped-up! | %41
!ped! !^![A,C]2 A,F,!ped-up! | B,A,!ped! G,[D,F,]/[E,G,]/!ped-up! | A,G,!ped! F,E,/F,/!ped-up! | %44
!ped! G,E,!ped-up! .C,.E, |!ped! G,E, C,C!ped-up! | .A,.G,!ped! F,E,/F,/!ped-up! | %47
!ped! [C,G,][C,G,] [C,B,][C,G,]!ped-up! | [C,A,][C,G,]!ped! [C,F,]E,/F,/!ped-up! | %49
!ped! [C,G,][C,G,] [C,B,][C,G,]!ped-up! |!ped! [C,A,][C,G,] [C,B,][C,G,]!ped-up! | %51
!ped! [C,A,][C,G,] [C,B,][C,G,]!ped-up! | %52
!ped! (3A, .[F,A,].[F,A,] (3.[F,A,].[F,A,].[F,A,]!ped-up! | .[F,A,] z z2 | z4 | z4 | %56
!ped! (3[D,A,F] .[D,A,].[D,A,] (3.[D,A,].[D,A,].[D,A,]!ped-up! | .[D,A,] z z2 | z4 | z4 | %60
!ped! (3[C,A,F] .[C,A,].[C,A,] (3.[C,A,].[C,A,].[C,A,]!ped-up! | .[C,A,] z z2 | %62
!ped! (3!arpeggio![=B,,G,D] .[=B,D].[B,D] (3.[B,D].[B,D].[B,D]!ped-up! | .[=B,D] z z2 | %64
[K:treble] z AG.^F | .G[K:bass] A,,G,,.^F,, |!ped! [D,=B,][=F,D][D,B,][F,D] | %67
 [D,=B,][F,D][D,B,][F,D]!ped-up! |!ped! [E,C][G,E][E,C][G,E] | [E,C][G,E][E,C][G,E]!ped-up! | %70
!ped! F,G,F,G, | F,G,F,[I:staff -1]G,!ped-up! |!ped![I:staff +1] E,G,E,G, | %73
 E,G, E,!p![I:staff -1]G,!ped-up! |!ped!"^cresc."[I:staff +1] !>!A,G,F,D, | G,,F,D,G,,!ped-up! | %76
!ped! !>!A,G,E,C, | G,,E,C,G,,!ped-up! |!ped! [A,,A,][G,,G,][F,,F,][D,,D,]!ped-up! | %79
!ped! [G,,,G,,][F,,F,][D,,D,]G,,!ped-up! |!ped! [A,,A,][G,,G,][E,,E,][C,,C,]!ped-up! | %81
!ped! [G,,,G,,][E,,E,][C,,C,][G,,,G,,]!ped-up! |[K:treble]!ped! AGFD | G,FDG,!ped-up! | %84
!f!!ped! AGEC |[K:bass] G,ECG,!ped-up! |!mp!!ped! G,/"_cresc."A,/G,/A,/ G,/A,/G,/A,/ | %87
 G,/A,/G,/A,/ G,/A,/G,/A,/!ped-up! |!ped! G,/A,/G,/A,/ G,/A,/G,/A,/ | %89
 G,/A,/G,/A,/ G,/A,/G,/A,/!ped-up! |!ped! G,/[A,=B,]/G,/[A,B,]/ G,/[A,B,]/G,/[A,B,]/ | %91
 G,/[A,=B,]/G,/[A,B,]/ G,/[A,B,]/G,/[A,B,]/!ped-up! |!f! !arpeggio![G,CE]3 [A,F]/[=B,G]/ | %93
 [CA][=B,G]/[A,F]/ [G,E][A,F]/[B,G]/ | [CA][=B,G]/[A,F]/ [G,E][A,F]/[B,G]/ | .[F,CA] z z2 | %96
!ped! z CFA,!ped-up! |!ped! z ECG,!ped-up! | z G,GG, | [G,CE]3 [A,F]/[=B,G]/ | %100
 [CA][=B,G]/[A,F]/ [G,E][A,F]/[B,G]/ | [CA][=B,G]/[A,F]/ [G,E][A,F]/[B,G]/ | .[F,CA] z z2 | %103
!ped! A,2 G,F,!ped-up! |!ped! E,2 [D,F,][C,E,]!ped-up! | [C,E,][=B,,D,][A,,C,][B,,D,] | %106
 z [C,E,][D,F,][E,G,] |!ped! z [A,C][G,=B,][F,A,]!ped-up! |!ped! z [E,G,][D,F,][C,E,]!ped-up! | %109
 z [=B,,D,F,G,] [A,,C,][B,,D,F,G,] | %110
!ped! (3[C,E,] [C,,E,,C,][C,,E,,C,] (3[C,,E,,C,][D,,F,,D,][E,,G,,E,]!ped-up! | %111
!ped! (3[F,,A,,F,][F,A,][F,,A,,F,] (3[A,,C,A,][A,C][A,,C,A,]!ped-up! | %112
!ped! (3[C,E,C][CE][C,E,C] (3[E,G,E][CG][E,G,E]!ped-up! | %113
!ped! (3[G,DFG][G,=B,FG][G,DFG] (3[G,B,FG][G,CEG][G,B,DG]!ped-up! | %114
!ped! (3!^![C,G,C][C,,C,][C,,C,] z E/D/ | .CE/D/ .CA/^F/!ped-up! |!ped! [G,EG]2 z A/G/ | %117
 .EG/=F/ .DF/E/!ped-up! |!ff!!ped! (3[C,G,C][C,,C,][C,,C,] z E/D/ | .CE/D/ .CA/^F/!ped-up! | %120
!ped! [G,EG]2 z A/G/ | .EG/=F/!ped-up!!ped! .DF/E/!ped-up! | %122
!ped! CG/E/!ped-up!!ped! DG/F/!ped-up! |!ped! CG/E/!ped-up!!ped! DG/F/!ped-up! | %124
!ped! CG/E/!ped-up!!ped! DG/F/!ped-up! |!ped! CG/E/!ped-up!!ped! DG/F/!ped-up! | %126
 C [C,,G,,]/[C,,G,,]/!ped! [C,,G,,]2!ped-up! | %127
!ped! (3[C,,G,,][C,,G,,][C,,G,,]!ped-up!!ped! [C,,G,,]2!ped-up! | %128
!ped! (3[C,,G,,][C,,G,,][C,,G,,]!ped-up!!ped! [C,,G,,]2!ped-up! | %129
!ped! (3[C,,G,,][C,,G,,][C,,G,,]!ped-up!!ped! [C,,G,,]2!ped-up! |!ped! C, G,/E,/ .C,G,/E,/ | %131
 .C,G,/E,/ .C,G,/E,/ | .C,G,/E,/ .C,G,/E,/ | .C,G,/E,/ .C,G,/E,/!ped-up! | .C, z z2 | z4 | z4 | %137
 z A,B,.D :| [C,G,B,]4- | [C,G,B,]4 | [C,G,B,]4- | [C,G,B,]4 | z F,G,.B, | .A, A,B,.D | .C CD.F | %145
 ._E DE.G | [F,C_E]4- | [F,CE]4 | [F,C_E]4- | [F,CE]4 |!ped! (3.F,,.D,.B,, (3.F,.D,.B,, | %151
 (3.F,,.D,.B,, (3.F,.D,.B,, | (3.F,,.D,.B,, (3.F,.D,.B,, | (3.F,,.D,.B,, (3.F,.D,.B,, | %154
 (3.F,,.D,.B,, (3.F,.D,.B,, | (3.F,,.D,.B,, (3.F,.D,.B,, | (3.F,,.D,.B,, (3.F,.D,.B,, | %157
 (3.F,,.D,.B,, (3.F,.D,.B,, | (3.F,,.D,.B,, (3.F,.D,.B,, | (3.F,,.D,.B,, (3.F,.D,.B,, | %160
 (3.F,,.D,.B,, (3.F,.D,.B,, | (3.F,,.D,.B,, (3.F,.D,.B,,!ped-up! |!ped! (3.A,,.^F,.D, (3.A,.F,.D, | %163
 (3.A,,.^F,.D, (3.A,.F,.D, | (3.A,,.^F,.D, (3.A,.F,.D, | (3.A,,.^F,.D, (3.A,.F,.D, | %166
 (3.A,,.^F,.D, (3.A,.F,.D, | (3.A,,.^F,.D, (3.A,.F,.D, | (3.A,,.^F,.D, (3.A,.F,.D, | %169
 (3.A,,.^F,.D, (3.A,.F,.D,!ped-up! |!ped! (3.A,,.^F,.D, (3.A,.F,.D, | (3.A,,.^F,.D, (3.A,.F,.D, | %172
 (3.A,,.^F,.D, (3.A,.F,.D, | (3.A,,.^F,.D, (3.A,.F,.D,!ped-up! | %174
!ped! .[D,D][A,,A,]/[G,,G,]/ .[^F,,^F,].[D,,D,] | .[D,D][A,,A,]/[G,,G,]/ .[^F,,^F,].[D,,D,] | %176
 .[D,D][A,,A,]/[G,,G,]/ .[^F,,^F,].[D,,D,] | .[D,D][A,,A,]/[G,,G,]/ .[^F,,^F,].[D,,D,] | %178
 .[D,D][A,,A,]/[G,,G,]/!ped-up! .[^F,,^F,].[D,,D,] | z4 | .D,A,,/G,,/ .^F,,.D,, | z4 | %182
"^dim." .AG/^F/ .D.A, | .AG/^F/ .D.A, | .AG/^F/ .D.A, | .AG/^F/ .D.A, |[K:treble] .D.A, z2 | %187
 .D.A, z2 | .D.A,.D.A, | .D.A,.D.A, | z[K:bass] .=B,.C.E | .DC/=B,/ .A,.D, | G4 | D4- | D4 | %195
 D2 x2 |!ped! (3.G,,.D,.=B,, (3.G,.D,.B,, | (3.G,,.D,.=B,, (3.G,.D,.B,, | %198
 (3.G,,.D,.=B,, (3.G,.D,.B,, | (3.G,,.D,.=B,, (3.G,.D,.B,, | (3.G,,.D,.=B,, (3.G,.D,.B,, | %201
 (3.G,,.D,.=B,, (3.G,.D,.B,, | (3.G,,.D,.=B,, (3.G,.D,.B,, | (3.G,,.D,.=B,, (3.G,.D,.B,, | %204
 (3.G,,.D,.=B,, (3.G,.D,.B,, | (3.G,,.D,.=B,, (3.G,.D,.B,, | (3.G,,.D,.=B,, (3.G,.D,.B,, | %207
 (3.G,,.D,.=B,, (3.G,.D,.B,,!ped-up! |!ped! (6:4:6E,,E,=B,,^G,E,B,, | (6:4:6E,,E,=B,,^G,E,B,, | %210
 (6:4:6E,,E,=B,,^G,E,B,, | (6:4:6E,,E,=B,,^G,E,B,, | (6:4:6E,,E,=B,,^G,E,B,, | %213
 (6:4:6E,,E,=B,,^G,E,B,, | (6:4:6E,,E,=B,,^G,E,B,, | (6:4:6E,,E,=B,,^G,E,B,,!ped-up! | %216
!ped! (6:4:6E,,E,=B,,^G,E,B,, | (6:4:6E,,E,=B,,^G,E,B,, | (6:4:6E,,E,=B,,^G,E,B,, | %219
 (6:4:6E,,E,=B,,^G,E,B,,!ped-up! |!ped! .[E,E][=B,,=B,]/[A,,A,]/ .[^G,,^G,].[E,,E,] | %221
 .[E,E][=B,,=B,]/[A,,A,]/ .[^G,,^G,].[E,,E,] | .[E,E][=B,,=B,]/[A,,A,]/ .[^G,,^G,].[E,,E,] | %223
 .[E,E][=B,,=B,]/[A,,A,]/ .[^G,,^G,].[E,,E,] | %224
 .[E,E][=B,,=B,]/[A,,A,]/!ped-up! .[^G,,^G,].[E,,E,] | z4 | .E,=B,,/A,,/ .^G,,.E,, | z4 | %228
[K:treble] .=BA/^G/ .E.=B, | .=BA/^G/ .E.=B, | .=BA/^G/ .E.=B, | .=BA/^G/ .E.=B, | .E.=B, z2 | %233
 .E.=B, z2 | .E.=B,.E.B, | .E.=B,.E.B, | z[K:bass] .^C.D.^F | .ED/^C/ .=B,.E, |[K:treble] A4 | E4 | %240
 z2 A^G/A/ | E4 |[K:bass] [A,^C]2 [CE]2 | [=B,D]3 [A,^C] | [D^F]2 [^CE]2 | [E,=B,]4 | %246
!ped! [A,,^C,]2!ped-up!!ped! [C,E,]2!ped-up! |!ped! [=B,,D,]3!ped-up! [A,,^C,] | %248
!ped! [D,^F,]2!ped-up!!ped! [^C,E,]2!ped-up! | .[=B,,D,][B,,D,]/[^C,E,]/ .[D,^F,].[B,,D,] | %250
!ped! [^C,E,]2!ped-up!!ped! [E,G,]2!ped-up! |!ped! [D,^F,]3!ped-up! [^C,E,] | %252
!ped! ^F,2!ped-up!!ped! [E,G,]2!ped-up! | %253
!ped! [D,^F,][D,F,]/[E,G,]/!ped-up!!ped! [F,A,][E,G,]!ped-up! | %254
!ped![I:staff -1] A,/!pp!C/D/C/[I:staff +1] A,/C/D/C/!ped-up! |!ped! A,/C/D/C/ A,/C/D/C/!ped-up! | %256
!ped! G,/[I:staff -1] B,/D/B,/[I:staff +1] G,/B,/D/B,/!ped-up! | %257
!ped! G,/B,/D/B,/ G,/B,/D/B,/!ped-up! | %258
!ped! D,/!p![I:staff -1]A,/C/A,/[I:staff +1] D,/^F,/A,/F,/!ped-up! | %259
!ped! D,/G,/B,/G,/ D,/A,/C/A,/!ped-up! |!ped! G,,/!p!D,/=B,/A,/!ped-up!!ped! E,/G,/C/G,/!ped-up! | %261
!ped! F,/G,/D/G,/!ped-up!!ped! F,/G,/F,/G,/!ped-up! |!ff!!ped! !^![C,,E,]2 !^![E,,C,G,]2!ped-up! | %263
!ped! !^![D,,C,F,]3!ped-up! [C,,E,] |!ped! [F,,C,A,]2!ped-up!!ff!!ped! [E,,C,G,]2!ped-up! | %265
!ped! .[D,,C,F,][D,F,]/[E,G,]/!ped-up!!ped! .[F,A,].[D,F,]!ped-up! | %266
!ped! [E,,C,G,]2!ff! [G,,C,B,]2!ped-up! |!ped! [F,,C,A,]3!ped-up! [E,,C,G,] | %268
!ped! [A,,C,C]2!ped-up!!ff!!ped! [G,,C,B,]2!ped-up! | %269
!ped! .[F,,C,A,] [F,A,]/[G,B,]/!ped-up!!ped! .[A,C].[F,A,]!ped-up! | %270
!ped! [B,,D]2!ped-up!!ff!!ped! [A,,C,C]2!ped-up! | %271
!ped! .[G,,C,B,] [E,G,]/[F,A,]/!ped-up!!ped! .[G,B,].[A,C]!ped-up! | %272
!ped! [B,,D]2!ped-up!!ff!!ped! [A,,C,C]2!ped-up! | %273
!ped! .[G,,C,B,] [E,G,]/[F,A,]/!ped-up!!ped! .[G,B,].[A,C]!ped-up! | %274
!ped! !arpeggio![B,,-F,-B,D]4!ped-up! | x (3F,/G,/A,/ .B,.C | [B,D] (3F,,/G,,/A,,/ .B,,.C, | %277
 D,!p! F,/G,/ .A,.B, | .C A,B,.D | .CB,/A,/ .[G,G].[C,C] | .[F,F].[G,G] [A,A][B,B]/[A,A]/ | %281
!ped! [C,G,]4 | z4 | z4!ped-up! | z4 | z4 | z4 | z4 |!ped!!p! z A,!ped-up!!ped! B,D!ped-up! | %289
!ped! CG,/A,/!ped-up!!ped! .B,.G,!ped-up! |!ped! z A,!ped-up!!ped! B,D!ped-up! | %291
!ped! C[G,G]/[A,A]/!ped-up!!ped! .[B,B].[C,G,]!ped-up! |!ped!!<(! A,2!ped-up!!ped! [A,C]2!ped-up! | %293
!ped! [G,B,]3!ped-up!!ped!!<)!!mf! [F,A,]!ped-up! |!ped! D2!ped-up!!ped!!mp! C2!ped-up! | %295
!p!!ped! x[K:treble] G/A/!ped-up!!ped! B.G!ped-up! | %296
[K:bass]!ped! [F,A,]2!ped-up!!ped! [A,C]2!ped-up! |!ped! [G,B,]3!ped-up! [F,A,] | %298
!ped! [B,,,B,,]2!ped-up!!ped! [F,,A,,F,]2!ped-up! |!ped! z G,/A,/!ped-up! .B,.=B, | %300
!ped! CG,/A,/!ped-up! ._B,.=B, |!ped! .C x!ped-up! x2 |!ped! C,3!ped-up! C, | %303
!ped! (3C,CB,!ped-up! (3.A,.G,.F, |!ped! (3.E,CB,!ped-up! (3.A,.G,.F, | %305
!ped! (3.E,CB,!ped-up! (3.A,.G,.F, |!ped! (3.E,CB,!ped-up! (3.A,.G,.F, | %307
 (3.[C,E,] .[C,C].[B,,B,] (3.[A,,A,].[G,,G,].[F,,F,] | %308
 (3.[E,,E,].[A,,A,].[G,,G,] (3.[F,,F,].[E,,E,].[D,,D,] | %309
 (3.[C,,C,].[F,,F,].[E,,E,] (3.[D,,D,].[C,,C,].[B,,,B,,] | %310
 (3.[A,,,A,,].[D,,D,].[C,,C,] (3.[B,,,B,,].[A,,,A,,].[G,,,G,,] | %311
 !>![F,,,F,,] [F,,,C,,]/F,,/[F,,,C,,]/F,,/[F,,,C,,]/F,,/ |!ped! !//-![F,,,C,,]2!ped-up! F,,2 | %313
 !//-![F,,,C,,]2!ped! F,,2!ped-up! | !//-![F,,,C,,]2!ped! F,,2!ped-up! | %315
!ped! !arpeggio!.[F,,,C,,F,,] [A,C]!ped-up! [A,C][A,C] |!ped! [A,C]2!ped-up! A,F, | %317
 B,A,!ped! G,[D,F,]/[E,G,]/!ped-up! | .A,.G,!ped! F,E,/F,/!ped-up! |!ped! G,E,!ped-up! .C,.E, | %320
!ped! G,E,!ped-up!!ped! C,C!ped-up! | A,G,!ped! F,E,/F,/!ped-up! | %322
!ped! G,G,!ped-up!!ped! B,G,!ped-up! | .A,.G,!ped! F,E,/F,/!ped-up! | %324
!ped! G,G,!ped-up!!ped! B,G,!ped-up! |!ped! A,A,!ped-up!!ped! B,G,!ped-up! | %326
!ped! A,A,!ped-up!!ped! B,G,!ped-up! |!ped! (3A, .[F,A,].[F,A,] (3.[F,A,].[F,A,].[F,A,] | %328
 .[F,A,]!ped-up! z z2 | z4 | z4 |!ped! (3[D,A,F] .[D,A,].[D,A,] (3.[D,A,].[D,A,].[D,A,]!ped-up! | %332
 .[D,A,] z z2 | z4 | z4 |!ped! (3[C,A,F] .[C,A,].[C,A,] (3.[C,A,].[C,A,].[C,A,]!ped-up! | %336
 [C,A,] z z2 | (3[=B,,D]!ped! .[B,,G,].[B,,G,] (3.[B,,G,].[B,,G,].[B,,G,]!ped-up! | [=B,,G,] z z2 | %339
 (3[B,,C]!ped! .[B,,E,G,].[B,,E,G,] (3.[B,,E,].[B,,E,G,].[B,,E,G,]!ped-up! | %340
 .[B,,E,G,] z"^delicato" z2 | z4 | z4 | z[K:treble] dc.=B | .c[K:bass] D,C,.=B,, | %345
"^dolce"!pp!!ped! z [G,E]"^legatissimo"[B,C][G,E] | [B,C][G,E][B,C][G,E]!ped-up! | %347
!ped! [A,F][F,C][A,F][F,C] | [A,F][F,C][A,F][F,C]!ped-up! |!ped! [B,C]G,[B,C]G, | B,C B,2!ped-up! | %351
!ped! A,CA,C | A,C!p! x2!ped-up! |!ped! CB,G,E, | C,B,G,C,!ped-up! |!ped! DCA,F, | %356
 C,A,F,C,!ped-up! |!ped! [C,C][B,,B,][G,,G,][E,,E,] | [C,,C,][B,,B,][G,,G,][C,,C,]!ped-up! | %359
!ped! [D,D][C,C][A,,A,][F,,F,] | [C,,C,][A,,A,][F,,F,][C,,C,]!ped-up! |[K:treble]!ped! dcBF | %362
 CBGC!ped-up! |!f!!ped! dc[K:bass]AF | CAFC!ped-up! | %365
!mp!!ped!"_cresc." [B,,C,]/E,/[B,,C,]/E,/ [B,,C,]/E,/[B,,C,]/E,/ | %366
 [B,,C,]/E,/[B,,C,]/E,/ [B,,C,]/E,/[B,,C,]/E,/!ped-up! | %367
!ped! [A,,C,]/F,/[A,,C,]/F,/ [A,,C,]/F,/[A,,C,]/F,/ | %368
 [A,,C,]/F,/[A,,C,]/F,/ [A,,C,]/F,/[A,,C,]/F,/!ped-up! | %369
!ped! [C,E,]/G,/[C,E,]/G,/ [C,E,]/G,/[C,E,]/G,/ | %370
 [C,E,]/G,/[C,E,]/G,/ [C,E,]/G,/[C,E,]/!f!G,/!ped-up! |!ff! !arpeggio![F,,C,F,A,]3 [B,D]/[CE]/ | %372
 [DF][CE]/[B,D]/ [A,C][B,D]/[CE]/ | [DF][CE]/[B,D]/ [A,C] z | .[B,,F,B,D] z z2 | %375
!ped! z F,[B,D][F,F] | A,C, [F,A,][C,C]!ped-up! | z C, [B,C]C, | [C,A,]3 [D,B,]/[E,C]/ | %379
 [F,D][E,C]/[D,B,]/ [C,A,][D,B,]/[E,C]/ | [F,D][E,C]/[D,B,]/ [C,A,][D,B,]/[E,C]/ | .[F,D] z z2 | %382
!ped! D,B,F,B,,!ped-up! | A,,F,C,F,, | C,,C,B,,C,, | [F,,A,,] [F,A,][G,B,][A,C] | z DCB, | %387
 z A,G,F, | z E,D,E, | %389
!f! (3[F,,A,,F,]!ped! !>![F,,,F,,]!>![F,,,F,,] (3!>![F,,,F,,][G,,,G,,][A,,,A,,]!ped-up! | %390
!ped! (3[B,,,D,,B,,][B,,,D,,B,,][B,,,D,,B,,]!ped-up!!ped! (3[D,,F,,D,][D,,F,,D,][D,,F,,D,]!ped-up! | %391
!ped! (3[F,,A,,F,][F,,A,,F,][F,,A,,F,]!ped-up!!ped! (3[A,,C,A,][A,,C,A,][A,,C,A,]!ped-up! | %392
!ped! (3[C,G,C][C,E,C][C,G,C]!ped-up!!ped! (3[C,E,C][C,A,C][C,E,C]!ped-up! | %393
 !^![A,,F,]2!ped! x A,/G,/ | .F,A,/G,/!ped-up! .F,D/=B,/ | C2!ped! x D/C/ | %396
 A,C/_B,/!ped-up! .G,B,/A,/ | !^![A,,F,]2!ped! x A,/G,/ | .F,A,/G,/!ped-up! .F,D/=B,/ | %399
 C2!ped! x D/C/ | .A,C/_B,/!ped-up! .G,B,/A,/ | F,2 C,2 | F,2 C,2 | F,2 C,2 | F,2 C,2 | %405
!ped! F,2 x2 | (3[F,,,C,,F,,]!ped-up!!ped![F,,,C,,F,,][F,,,C,,F,,] [F,,,C,,F,,]2- | %407
 (3[F,,,C,,F,,]!ped-up!!ped![F,,,C,,F,,][F,,,C,,F,,] [F,,,C,,F,,]2- | %408
 (3[F,,,C,,F,,]!ped-up!!ped![F,,,C,,F,,][F,,,C,,F,,] [F,,,C,,F,,]2- | %409
 [F,,,C,,F,,]!ped-up! C,/A,,/ .F,,C,/A,,/ | .F,,C,/A,,/ .F,,C,/A,,/ | .F,,C,/A,,/ .F,,C,/A,,/ | %412
 .F,,C,/A,,/ .F,,C,/A,,/ | .F,, z z2 | z4 | z4 | z D_E.G | [F,C_E]4- | [F,CE]4 | [F,C_E]4- | %420
 [F,CE]4 | z .[B,,B,].[G,,G,].[_E,,_E,] | .[D,,D,].[_E,,_E,].[F,,F,].[E,,E,] | %423
 .[D,,D,].[C,,C,].[B,,,B,,].[C,,C,] | .[A,,,A,,].[G,,,G,,].[F,,,F,,].[F,,A,,F,] | %425
 .[D,B,].[F,C] D_E/D/ | .[F,C].[B,D] _EF/E/ |!ped! [DF]2 (3z D,C, | %428
 (3[B,,B,]!ped-up!D,C, (3[B,,B,]G,=E, |!ped! F,2 (3F,G,F, | (3[D,D]F,!ped-up!_E, (3[C,C]E,D, | %431
!ped! [B,,B,]2 (3z D,C, | (3[B,,B,]D,C, (3[B,,B,]G,!ped-up!=E, |!ped! F,2- (3F,G,F,!ped-up! | %434
 (3[D,D]F,_E, (3[C,C]E,D, | [B,,B,-]2 (3B,CD | G,2- (3G,A,B, | E,2 (3x F,G, | C,2 (3x D,E, | %439
!ped! !^!F,2- (3F,A,G, | (3F,A,G, (3F,!ped-up!D=B, |!ped! [C,A,C-]2 (3CDC | %442
 (3A,C!ped-up!B, (3G,B,A, |!ped! !^!F,2- (3F,A,G, | (3F,A,G, (3F,!ped-up!D=B, | %445
!ped! [C,A,C-]2 (3CDC | (3A,C!ped-up!B, (3G,B,A, |!ped! [F,,A,,F,-]2 (3x [F,A,F][F,A,F]!ped-up! | %448
!ped! [F,A,F]2- (3[F,A,F][F,A,F][F,A,F]!ped-up! |!ped! [A,CFA]2- (3[A,CFA][A,CFA][A,CFA]!ped-up! | %450
!ped! [E,G,CE]2- (3[E,G,CE][E,G,CE][E,G,CE]!ped-up! | %451
!ped! [F,-A,-CF-]2 (3[F,A,F][F,A,F][F,A,F]!ped-up! | %452
!ped! [F,A,F]2- (3[F,A,F][F,A,F][F,A,F]!ped-up! |!ped! [A,CFA]2- (3[A,CFA][A,CFA][A,CFA]!ped-up! | %454
!ped! [E,G,CE]2- (3[E,G,CE][E,G,CE][E,G,CE]!ped-up! | %455
!ped! [F,-A,-CF-]2 (3[F,A,F][F,A,F][F,A,F]!ped-up! | %456
!ped! [F,A,F]2- (3[F,A,F][F,A,F][F,A,F]!ped-up! |!ped! [A,CFA]2- (3[A,CFA][A,CFA][A,CFA]!ped-up! | %458
!ped! [A,CFA]2- (3[A,CFA][A,CA][A,CA]!ped-up! |!ped! [A,CA]2-!ped-up!!ped! (3[A,CA][G,B,G][G,B,G] | %460
 [G,B,G]2-!ped-up!!ped! (3[G,B,G][F,A,F][F,A,F] | [F,A,F]2-!ped-up!!ped! (3[F,A,F][E,G,E][E,G,E] | %462
 [E,G,E]2-!ped-up!!ped! (3[E,G,E][D,F,D][D,F,D] | [D,F,D]2-!ped-up!!ped! (3[D,F,D][E,C][E,C] | %464
 [E,C]2-!ped-up!!ped! (3[E,C][D,B,][D,B,] | [D,B,]2-!ped-up!!ped! (3[D,B,][C,A,][C,A,] | %466
 [C,A,]2!ped-up! (3z [G,B,][G,B,] | .B,G,/F,/ .E,.C, | F,4 |!ped! [C,G,]3 [E,C]!ped-up! | %470
 .[F,,A,,C,F,] z .[C,,E,,G,,C,] z | .B,G,/F,/ .E,.C, | F,4 |!ped! [C,G,]3 [E,C]!ped-up! | %474
 .[F,,A,,C,F,] z .[C,,E,,G,,C,] z | !>!F,, .C,.F,.C, | .E,.C,.G,.C, | .F,.C,.A,.C, | %478
!ped! .E,.C,.[E,C].[G,E]!ped-up! | [F,A,F] .C,.F,.C, | .E,.C,.G,.C, | .F,.C,.A,.C, | %482
!f!!ped! !arpeggio!.[C,,G,,C,E,].C,.[E,C].[G,E]!ped-up! |!ped! [F,A,F] z z2!ped-up! | %484
!ped! !arpeggio!.[C,,G,,C,E,].C,.[E,C].[G,E]!ped-up! |!ped! [F,A,F] z z2!ped-up! | %486
!ped! !arpeggio!.[C,,G,,C,E,].C,.[E,C].[G,E]!ped-up! |!ped! [F,A,F] z z2!ped-up! | %488
!ped! !arpeggio![F,,C,A,F] z!ped-up! z2 |!ped! !arpeggio![F,,C,A,F] z!ped-up! z2 | %490
!ped! !arpeggio![F,,C,A,F] z!ped-up! z2 |!ped! !arpeggio![F,,C,A,F] z!ped-up!"^delicato" z2 | %492
 [F,,C,]4- | [F,,C,]4- | [F,,C,]4- | [F,,C,]4- | [F,,C,]4- | [F,,C,] z z2 | z4 | z4 | z4 | z4 | %502
 .B,.C.D.E | .F z z2 | .[B,,,B,,].[C,,C,].[D,,D,].[E,,E,] | [F,,A,,C,F,]4 | [C,,E,,G,,C,]4 | %507
 [F,,,A,,,C,,F,,]4 | [F,,,A,,,C,,F,,]2 [F,,,A,,,C,,F,,]2 | [F,,,A,,,C,,F,,]4 | %510
 !arpeggio![F,,,C,,F,,C,]4 | !arpeggio![F,,,C,,F,,C,]4 |] %512
V:3
 x4 | x4 | x4 | x4 | !>!F,,4- | F,,4 | !>!F,,4- | F,,4 | x4 | x4 | x4 | x4 | x4 | x4 | x4 | x4 | %16
 x4 | x4 | x4 | C,3 [C,G,] | [C,G,]3 x | x4 | x4 | x4 | x4 | x4 | x4 | x4 | x4 | x4 | x4 | x4 | %32
 F,,/"_cresc."C,/F,/!>!F,,/G,/!>!F,,/B,/!>!F,,/ | A,/!>!F,,/G,/F,/E,/!>!F,,/C,/!>!F,,/ | %34
 F,/!>!F,,/E,/!>!F,,/F,/!>!F,,/ x | E,/!>!F,,/F,/!>!F,,/ G,/!>!F,,/ z | x4 | x4 | x4 | x4 | %40
 x F,/C,/F,/C,/F,/C,/ | F,/C,/ F,,/C,/C,/F,,/A,,/F,,/ | G,/C,/F,/C,/ E,/C,/ z | %43
 F,/C,/E,/C,/ D,/C,/ z | z/ C,,/G,,/C,,/ E,,/C,,/G,,/C,,/ | G,/C,,/G,,/C,,/ E,,/C,,/C/C,/ | %46
 A,/F,,/C,/F,,/C,/F,,/ z | C,/F,,/C,/F,,/ C,/F,,/C,/F,,/ | C,/F,,/C,/F,,/ C,/F,,/ z | %49
 C,/F,,/C,/F,,/ C,/F,,/C,/F,,/ | C,/F,,/C,/F,,/ C,/F,,/C,/F,,/ | C,/F,,/C,/F,,/ C,/F,,/C,/F,,/ | %52
 [F,,C,] x x2 | x4 | x4 | x4 | x4 | x4 | x4 | x4 | x4 | x4 | x4 | x4 |[K:treble] x4 | %65
 x[K:bass] x3 | G,,4- | G,,4 | C,4- | C,4 | =B,,2 B,,2 | =B,,2 D,B,, | C,2 C,2 | C,2 E,C, | x4 | %75
 x4 | x4 | x4 | x4 | x4 | x4 | x4 |[K:treble] G,4 | G,4 | [CE]4 |[K:bass] [C,E,]4 | %86
 [=B,,F,]2 [B,,F,]2 | [=B,,F,]2 [D,F,][B,,F,] | [C,E,]2 [C,E,]2 | [C,E,]2 E,C, | [D,F,]2 [D,F,]2 | %91
 [D,F,]2 F,D, | C,4- | C,4- | C,4 | x4 | F,,4 | C,4 | G,,4 | C,4- | C,4- | C,4 | x4 | F,,4 | C,,4 | %105
 G,,4 | [C,,C,]2 C,2 | !arpeggio![F,,C,A,]2 C,2 | !arpeggio![C,,G,,E,]2 G,,2 | [G,,,G,,]2 G,,2 | %110
 x4 | x4 | x4 | x4 | x2 !^![C,,G,,C,]2- | [C,,G,,C,]4- | %116
 (3[C,,G,,C,][C,,G,,][C,,G,,] [C,,G,,C,]2- | [C,,G,,C,]4 | x2 !^![C,,G,,C,]2- | [C,,G,,C,]4- | %120
 (3[C,,G,,C,][C,,G,,][C,,G,,] [C,,G,,C,]2- | [C,,G,,C,]4 | C2 [C,G,]2 | C2 [C,G,]2 | C2 [C,G,]2 | %125
 C2 [C,G,]2 | x4 | x4 | x4 | x4 | .C,,G,,/E,,/ .C,,G,,/E,,/ | .C,,G,,/E,,/ .C,,G,,/E,,/ | %132
 .C,,G,,/E,,/ .C,,G,,/E,,/ | .C,,G,,/E,,/ .C,,G,,/E,,/ | .C,, x x2 | x4 | x4 | x4 :| x4 | x4 | x4 | %141
 x4 | x4 | x4 | x4 | x4 | x4 | x4 | x4 | x4 | B,,,2 x2 | B,,,2 x2 | B,,,2 x2 | B,,,2 x2 | %154
 B,,,2 x2 | B,,,2 x2 | B,,,2 x2 | B,,,2 x2 | B,,,2 x2 | B,,,2 x2 | B,,,2 x2 | B,,,2 x2 | D,,2 x2 | %163
 D,,2 x2 | D,,2 x2 | D,,2 x2 | D,,2 x2 | D,,2 x2 | D,,2 x2 | D,,2 x2 | D,,2 x2 | D,,2 x2 | %172
 D,,2 x2 | D,,2 x2 | x4 | x4 | x4 | x4 | x4 | x4 | x4 | x4 | x4 | x4 | x4 | x4 |[K:treble] x4 | %187
 x4 | x4 | x4 | x[K:bass] x3 | x4 | x4 | x4 | G,4- | G,/^F,/E,/D,/ .D,.D, | G,,,2 x2 | G,,,2 x2 | %198
 G,,,2 x2 | G,,,2 x2 | G,,,2 x2 | G,,,2 x2 | G,,,2 x2 | G,,,2 x2 | G,,,2 x2 | G,,,2 x2 | G,,,2 x2 | %207
 G,,,2 x2 | E,,2 x2 | E,,2 x2 | E,,2 x2 | E,,2 x2 | E,,2 x2 | E,,2 x2 | E,,2 x2 | E,,2 x2 | %216
 !>!E,,, x x2 | !>!E,,, x x2 | !>!E,,, x x2 | !>!E,,, x x2 | x4 | x4 | x4 | x4 | x4 | x4 | x4 | %227
 x4 |[K:treble] x4 | x4 | x4 | x4 | x4 | x4 | x4 | x4 | x[K:bass] x3 | x4 |[K:treble] x4 | x4 | %240
 [A,E]4 | A,/^G,/^F,/E,/ E,E, |[K:bass] x4 | x4 | x4 | x4 | x4 | x4 | x4 | x4 | x4 | x4 | x4 | x4 | %254
 D,4- | D,4 | D,4- | D,4 | [D,,D,]4 | D,4 | G,,4- | G,,4 | x4 | x4 | x4 | x4 | x4 | x4 | x4 | x4 | %270
 x4 | x4 | x4 | x4 | x4 | [B,,F,]4 | x4 | x2 B,,2 | F,,4- | F,,4- | [F,,C,]4 | x4 | x4 | x4 | x4 | %285
 x4 | x4 | x4 | [F,,F,] x D,2 | E,3 C, | [F,,F,] x D,2 | E,2 x2 | F,,2 x2 | x4 | B,,2 [F,A,]2 | %295
 !arpeggio![C,G,E]4[K:treble] |[K:bass] x4 | x4 | x4 | [C,,C,]3 C, | C,3 C, | C,3 C, | x4 | %303
 (3:2:1C,3 (3x x C, | (3:2:1C,3 (3x x C, | (3:2:1C,3 (3x x C, | (3:2:1C,3 (3x x C, | x4 | x4 | x4 | %310
 x4 | x4 | x4 | x4 | x4 | x F,/C,/F,/C,/F,/C,/ | F,/C,/ F,,/C,/-C,/F,,/A,,/F,,/ | %317
 G,/C,/F,/C,/ E,/C,/ x | F,/C,/E,/C,/ D,/C,/ x | z/ C,,/G,,/C,,/ G,,/C,,/G,,/C,,/ | %320
 G,/C,,/G,,/C,,/ E,,/C,/C/C,/ | A,/F,,/C,/F,,/ C,/F,,/ x | C,/F,,/C,/F,,/ C,/F,,/C,/F,,/ | %323
 C,/F,,/C,/F,,/ C,/F,,/ x | C,/F,,/C,/F,,/ C,/F,,/C,/F,,/ | C,/F,,/C,/F,,/ C,/F,,/C,/F,,/ | %326
 C,/F,,/C,/F,,/ C,/F,,/C,/F,,/ | [F,,C,] x x2 | x4 | x4 | x4 | x4 | x4 | x4 | x4 | x4 | x4 | x4 | %338
 x4 | x4 | x4 | x4 | x4 | x[K:treble] x3 | x[K:bass] x3 | C,4- | C,4 | F,4- | F,4 | E,2 E,2 | %350
 E,2 G,E, | F,2 F,2 | F,2 A,"^cresc."F, | x4 | C,,2 x2 | x4 | C,,2 x2 | x4 | x4 | x4 | x4 | %361
[K:treble] E2 E2 | E2 GE | [FA]2[K:bass] F,2 | [F,A,]2 [A,C][F,A,] | E,,2 E,,2 | E,,2 G,,E,, | %367
 F,,2 F,,2 | F,,2 A,,F,, | [G,,B,,]2 [G,,B,,]2 | [G,,B,,]2 B,,G,, | x4 | F,2 F,2 | F,2 F,2 | x4 | %375
 B,,,4 | F,,4 | C,,4 | F,,4- | F,,4- | F,,4 | B,, x x2 | [B,,D,]4 | [F,,A,,]4 | [C,,B,,]4 | %385
 x2 F,2 | [B,,F,D]2 F,2 | [F,,C,A,]2 C,2 | [C,,B,,C,]2 C,2 | x4 | x4 | x4 | x4 | %393
 (3F,,!>![F,,,F,,]!>![F,,,F,,] !^!C,2- | C,4 | !^![C,A,]2 !^!F,2 | F,4 | %397
 (3F,,!>![F,,,F,,]!>![F,,,F,,] !^![C,,C,]2- | C,4 | !^![C,A,]2 !^!F,2 | F,4 | %401
 (3[F,,,F,,]!>![F,,,F,,]!>![F,,,-F,,] F,,2- | (3[F,,,F,,]!>![F,,,F,,]!>![F,,,F,,] F,,2 | %403
 (3[F,,,F,,]!>![F,,,F,,]!>![F,,,-F,,] F,,2- | (3[F,,,F,,]!>![F,,,F,,]!>![F,,,F,,] F,,2- | %405
 (3F,,!>![F,,,C,,F,,]!>![F,,,C,,F,,] [F,,,C,,F,,]2- | x4 | x4 | x4 | x4 | x4 | x4 | x4 | x4 | x4 | %415
 x4 | x4 | x4 | x4 | x4 | x4 | x4 | x4 | x4 | x4 | .B,, x B,2 | x2 [F,C]2 | %427
 (3z [B,,,B,,][B,,,B,,] [B,,,B,,]2- | [B,,,B,,]4- | (3[B,,,B,,][B,,,B,,][B,,,B,,] [B,,,B,,]2- | %430
 [B,,,-B,,]4 | (3[B,,,B,,][B,,,B,,][B,,,B,,] [B,,,B,,]2- | [B,,,B,,]4- | %433
 (3[B,,,B,,][B,,,B,,][B,,,B,,] [B,,,B,,]2- | [B,,,-B,,]4 | (3B,,,[B,,,B,,][B,,,B,,] [B,,,B,,]2- | %436
 (3[B,,,B,,][G,,,G,,][G,,,G,,] [G,,,G,,]2- | (3[G,,,G,,][E,,E,][E,,E,] [E,,E,]2- | %438
 (3[E,,E,][C,,C,][C,,C,] [C,,C,]2 | (3[F,,A,,F,]!>![F,,,F,,]!>![F,,,F,,] [F,,,F,,C,]2- | %440
 [F,,,F,,-C,]4 | (3F,,!>![F,,,F,,]!>![F,,,F,,] !>![F,,,C,,F,,]2- | [F,,,C,,F,,]4 | %443
 (3[F,,A,,F,]!>![F,,,F,,]!>![F,,,F,,] [F,,,F,,C,]2- | [F,,,F,,-C,]4 | %445
 (3F,,!>![F,,,F,,]!>![F,,,F,,] !>![F,,,C,,F,,]2- | [F,,,C,,F,,]4 | %447
 (3x!f! [F,,,A,,,F,,][F,,,A,,,F,,] [F,,,A,,,F,,]2- | (3[F,,,A,,,F,,]!f![D,,D,][D,,D,] [D,,D,]2- | %449
 (3[D,,D,]!f![C,,C,][C,,C,] [C,,C,]2- | (3[C,,C,]!f![C,,C,][C,,C,] [C,,C,]2- | %451
 (3[C,,C,]!f!!>![F,,,F,,]!>![F,,,F,,] !>![F,,,F,,]2- | (3[F,,,A,,,F,,]!f![D,,D,][D,,D,] [D,,D,]2- | %453
 (3[D,,D,]!f![C,,C,][C,,C,] [C,,C,]2- | (3[C,,C,]!f![C,,C,][C,,C,] [C,,C,]2- | %455
 (3[C,,C,]!f!!>![F,,,F,,]!>![F,,,F,,] !>![F,,,F,,]2- | (3[F,,,F,,]!f![D,,D,][D,,D,] [D,,D,]2- | %457
 (3[D,,D,]!f![C,,C,][C,,C,] [C,,C,]2- | (3[C,,C,][C,,C,][C,,C,] [C,,C,]2 | %459
 (3[D,,D,][C,,C,][C,,C,] [C,,C,]2- | (3[C,,C,][C,,C,][C,,C,] [C,,C,]2- | %461
 (3[C,,C,][C,,C,][C,,C,] [C,,C,]2- | (3[C,,C,][C,,C,][C,,C,] [C,,C,]2- | %463
 (3[C,,C,][C,,C,][C,,C,] [C,,C,]2- | (3[C,,C,][C,,C,][C,,C,] [C,,C,]2- | %465
 (3[C,,C,][C,,C,][C,,C,] [C,,C,]2 | (3z [C,,C,][C,,C,] [C,,C,-]2 | C,4 | D,4 | E,,4 | x4 | C,4 | %472
 D,4 | E,,4 | x3 z | !>!F,,, x x2 | x4 | x4 | [C,,G,,E,]2 x C, | x4 | x4 | x4 | x2 x C, | x4 | %484
 x2 x C, | x4 | x2 x C, | x4 | x4 | x4 | x4 | x4 | x4 | x4 | x4 | x4 | x4 | x4 | x4 | x4 | x4 | %501
 x4 | x4 | x4 | x4 | x4 | x4 | x4 | x4 | x4 | x4 | x4 |] %512
V:4
 x4 | x4 | x4 | x4 | x4 | C4 | CA,xD | C4 | x4 | x4 | x4 | E4 | x4 | x4 | DE.F.C | E3 [DF] | %16
 E3 [DF] | E3 [DF] | E3 [DF] | E3 [DF] | E3 [DF] | E3 [DF] | E3 [DF] | E3 [DF] | [CE] x x2 | x4 | %26
 x4 | x4 | x4 | x4 | x4 | x4 | x4 | [Ac]B/A/ GC | FG AB/A/ | GA Bc/B/ | x4 | x4 | x4 | x4 | x4 | %41
 x4 | x4 | x4 | x4 | x4 | x4 | [Bg][ce][Geg][ce] | x4 | [Bg][ce] [Geg][ce] | [Af][ce] [Gg][ce] | %51
 [Af][ce] [Geg][ce] | [Af] x x2 | x4 | x4 | x4 | x4 | x4 | x4 | x4 | x4 | x4 | x4 | x4 | x4 | x4 | %66
 x4 | x4 | x4 | x4 | D[I:staff +1]G,[I:staff -1] x2 | x4 | E[I:staff +1]G,[I:staff -1] x2 | x4 | %74
 [=B,D]G,[B,D]G, | [=B,D]G,[B,D]G, | ECEC | ECEC | [DF]G,[DG]G, | [DG]G,GD | [EG]C[EG]G, | %81
 [EG]G,GE | (3[dg][fa][dg] (3[fa][dg][fa] | (3[dg][fa][dg] (3[fa][dg][fa] | %84
 (3[cg][ea][cg] (3[ea][cg][ea] | (3[cg][ea][cg] (3[ea][cg][ca] | agfd | GfdG | agec | GecG | agfd | %91
 GfdG |!8va(! x4 | x4 | x4 | x!8va)! x3 | z cAc | z GEG | F2 F2 |!8va(! x4 | x4 | x4 | x!8va)! x3 | %103
 C2 =B,A, | G,2 x2 |[K:bass] [F,G,]2 G,2 | [E,G,][K:treble] x x2 | x4 | x4 | %109
 [Ece][D=Bd][CAc][DBd] | x2/3!8va(! x10/3 | x4!8va)! | x4 | x4 | x2 !^![G,G]2- | [G,G]4 | %116
 [ee']2 [Cc]2- | [Cc]4 | x2 !^![G,G]2- | [G,G]4 | [ee']2 [Cc]2- | [Cc]4 | [cc']2 [Gg]2 | %123
 [cc']2 [Gg]2 | [cc']2 [Gg]2 | [cc']2 [Gg]2 | [cc']G/E/ .DG/F/ | .CG/E/ DG/F/ | .CG/E/ DG/F/ | %129
 .CG/E/ DG/F/ | C2 G,2 | x4 | x4 | x4 | x4 | x4 | x4 | x4 :| E4- | E4 | E4- | E4 | x4 | x4 | x4 | %145
 x4 | A4- | x _e/d/ .c.F | A4- | x _e/d/ .c.F | [B,D]2 x2 | [B,D]2 x2 | [B,D]2 x2 | [B,D]2 x2 | %154
 [Bd]2 x2 | [Bd]2 x2 | [Bd]2 x2 | [Bd]2 x2 | [DF]2 x2 | [DF]2 x2 | [DF]2 x2 | [DF]2 x2 | %162
 [Ad^f]2 x2 | [Ad^f]2 x2 | [Ad^f]2 x2 | [Ad^f]2 x2 | [^FA]2 x2 | [^FA]2 x2 | [^FA]2 x2 | %169
 [^FA]2 x2 | [d^fa]2 x2 | [d^fa]2 x2 | [d^fa]2 x2 | [d^fa]2 x2 |!8va(! x4 | x4 | x4 | x4 | %178
 x!8va)! x3 | x4 | x4 | x4 | x4 | x4 | x4 | x4 | x4 | x4 | x4 | x4 | x4 | x4 | %192
[I:staff +1] .G[I:staff -1].A =Bc/B/ | A4 | =BA d2 | [cd]2 x2 | x4 | [=B,D]2 x2 | [=B,D]2 x2 | %199
 [=B,D]2 x2 | [G=B]2 x2 | [G=B]2 x2 | [G=B]2 x2 | [G=B]2 x2 | [D=B]2 x2 | [D=B]2 x2 | [D=B]2 x2 | %207
 [D=B]2 x2 | [=B^g]2 x2 | [=B^g]2 x2 | [=B^g]2 x2 | [=B^g]2 x2 | [^G=B]2 x2 | [^G=B]2 x2 | %214
 [^G=B]2 x2 | [^G=B]2 x2 | [^g=b]2 x2 | [^g=b]2 x2 | [^g=b]2 x2 | [^g=b]2 x2 |!8va(! x4 | x4 | x4 | %223
 x4 | x!8va)! x3 | x4 | x4 | x4 | x4 | x4 | x4 | x4 | x4 | x4 | x4 | x4 | x4 | x4 | %238
[I:staff +1] .A[I:staff -1].=B ^cd/c/ | =B4 | ^c=B ee | [de]2 x2 | x4 | x4 | x4 | x4 | %246
[I:staff +1] A,/!pp![I:staff -1]^C/A/A/ C/E/A/A/ | x4 | x4 | x4 | x4 | x4 | x4 | x4 | x4 | x4 | %256
 x4 | x4 | x4 | x4 | x4 | x4 | e2 g2 | f3 e | a2 g2 | .ff/g/ .a.f | g2 b2 | a3 g | c'2 b2 | %269
 aa/b/ c'a | d'2 c'2 | bg/a/ bc' | d'2 c'2 | .bg/a/ .b.c' | d!f! (3F/"_dim."G/A/ .B.c | d x x2 | %276
 x4 | z F/G/ .A.B | .c AB.d | .cB/A/ x2 | x4 | G4 | x4 | x4 | x4 | x4 | x4 | x4 | x4 | x4 | %290
 (3:2:2x2 A(3Bxd | (3:2:2c x2 (3:2:2x2 [EG] | F2 c2 | B2 (3:2:2x2 F | B2 A2 | x4 | x4 | x4 | %298
 D2 C2 | G, x x2 | x4 | x4 | x4 | C2 x2 | x4 | x4 | x4 | x4 | x4 | x4 | x4 | x4 | x4 | x4 | x4 | %315
 x4 | x4 | x4 | x4 | x4 | x4 | x4 | [Bg][ce] [Ge][ce] | x4 | [Bg][ce] [Ge][ce] | %325
 [Af][ce] [Ge][ce] | [Af][ce] [Ge][ce] | [Af] x x2 | x4 | x4 | x4 | x4 | x4 | x4 | x4 | x4 | x4 | %337
 x4 | x4 | x4 | x4 | x4 | x4 | x4 | x4 | x4 | x4 | x4 | x4 | x4 | x4 | x4 | x4 | [B,E]G[B,E]G | %354
 [B,E]G[B,E]G | [FA][Ac][FA][Ac] | [FA][Ac][FA][Ac] | [EG][GB] [EG][GB] | [EG][GB] [EB]G | %359
 [FA][Ac][FA][Ac] | [FA][Ac][Ac][FA] | x4 | x4 | x4 | x4 |!8va(! d'c'bg | cbgc | d'c'af | cafc | %369
 d'c'bg | cbgc | x4 | x4 | x4 | x!8va)! x3 | DF x2 | x C x2 | B,2 x2 | x4 | x4 | x4 | x4 | x4 | %383
[K:bass] x4 | x4 | x[K:treble] x3 | x4 | x4 | x4 | x4 | x4 | x4 | x4 | x2 !^!C2- | C4 | c2 x d/c/ | %396
 .Ac/_B/ .GB/A/ | x2 !^!C2- | C4 | c2 x d/c/ | .Ac/_B/ .GB/A/ | Fc/A/ Gc/B/ | Fc/A/ Gc/B/ | %403
 Fc/A/ Gc/B/ | Fc/A/ Gd/B/ | F2 C2 | F2 C2 | F2 C2 | F2 C2 | x2[K:bass] x2 | x4 | x4 | x4 | %413
 x[K:treble] x3 | x4 | x4 | x4 | A4- | x _e/d/ .c.F | A4- | x _e/d/ .c.F | x4 | x [GB].A x | %423
 x2 x F | x2 x F | x2 [db]2 | x2 [_ea]2 | [dbd']2 (3z [Dd][Cc] | (3B[Dd][Cc] (3B[Gg][=E=e] | %429
 [Ff]2- (3[Ff][Gg][Ff] | (3d[Ff][_E_e] (3c[Ee][Dd] | B2 (3B[Dd][Cc] | (3B[Dd][Cc] (3B[Gg][=E=e] | %433
 [Ff]2 (3[Ff][Gg][Ff] | (3d[Ff][_E_e] (3c[Ee][Dd] | B2 (3Bcd | G2- (3GAB | E2- (3EFG | C2- (3CDE | %439
 F2- C2- | C4 | a2 [F,A,F]2- | [F,A,F]4 | F2- C2- | C4 | a2 [F,A,F]2- | [F,A,F]4 | %447
 [F-A]2 [F,A,F]2 | [Af]2- [F,A,F]2 | [cf]2- [F,A,F]2 | [Gc]2- [E,G,E]2 | [A-c]2 [F,A,F]2 | %452
 [Af]2- [F,A,F]2 | [cf]2- [F,A,F]2 | [Gc]2- [E,G,E]2 | [A-c]2 [F,A,F]2 | [Af]2- [F,A,F]2 | %457
 [cf]2- [F,A,F]2 | [cf]2- [F,A,F]2 | c2- [F,A,F]2 | x4 | x4 | x4 | x4 | x4 | x4 | x4 | x4 | %468
 FD/C/ .=B,.G, | _B2 x [GB] | x4 | x4 | FD/C/ .=B,.G, | _B2 x [GB] | x3 z | x4 | x4 | x4 | %478
 [Bb]2 x [Bb] | [Aa] x x2 | x4 | x4 | !^![Bb]2 x [Bb] | [Aa] x x2 | !^![Bb]2 x [Bb] | [Aa] x x2 | %486
 !^![Bb]2 x [Bb] | [Aa] x x2 | [Aa] x x2 | [Aa] x x2 | [Aa] x x2 | x4 | x4 | x4 | x4 | x4 | x4 | %497
 x4 | x4 | x4 | x4 | x4 | x4 | x4 | x4 | x4 | x4 | x4 | x4 | x4 | x4 | x4 |] %512
V:5
 x4 | x4 | x4 | x4 | x4 | x4 | x4 | x4 | x4 | x4 | x4 | x4 | x4 | x4 | x4 | x4 | x4 | x4 | x4 | %19
 x4 | x4 | x4 | x4 | x4 | x4 | x4 | x4 | x4 | x4 | x4 | x4 | x4 | x4 | x4 | x4 | x4 | x4 | x4 | %38
 x4 | x4 | x4 | x4 | x4 | x4 | x4 | x4 | x4 | x4 | x4 | x4 | x4 | x4 | x4 | x4 | x4 | x4 | x4 | %57
 x4 | x4 | x4 | x4 | x4 | x4 | x4 |[K:treble] x4 | x[K:bass] x3 | x4 | x4 | x4 | x4 | x4 | x4 | %72
 x4 | x4 | x4 | x4 | x4 | x4 | x4 | x4 | x4 | x4 |[K:treble] x4 | x4 | x4 |[K:bass] x4 | x4 | x4 | %88
 x4 | x4 | x4 | x4 | x4 | x4 | x4 | x4 | x4 | x4 | x4 | x4 | x4 | x4 | x4 | z C,3 | z G,,3 | x4 | %106
 x4 | x4 | x4 | x4 | x4 | x4 | x4 | x4 | x4 | x4 | x4 | x4 | x4 | x4 | x4 | x4 | x4 | x4 | x4 | %125
 x4 | x4 | x4 | x4 | x4 | x4 | x4 | x4 | x4 | x4 | x4 | x4 | x4 :| x4 | x4 | x4 | x4 | x4 | x4 | %144
 x4 | x4 | x4 | x4 | x4 | x4 | x4 | x4 | x4 | x4 | x4 | x4 | x4 | x4 | x4 | x4 | x4 | x4 | x4 | %163
 x4 | x4 | x4 | x4 | x4 | x4 | x4 | x4 | x4 | x4 | x4 | x4 | x4 | x4 | x4 | x4 | x4 | x4 | x4 | %182
 x4 | x4 | x4 | x4 |[K:treble] x4 | x4 | x4 | x4 | x[K:bass] x3 | x4 | x4 | x4 | x2 G^F/G/ | x4 | %196
 x4 | x4 | x4 | x4 | x4 | x4 | x4 | x4 | x4 | x4 | x4 | x4 | x4 | x4 | x4 | x4 | x4 | x4 | x4 | %215
 x4 | x4 | x4 | x4 | x4 | x4 | x4 | x4 | x4 | x4 | x4 | x4 | x4 |[K:treble] x4 | x4 | x4 | x4 | %232
 x4 | x4 | x4 | x4 | x[K:bass] x3 | x4 |[K:treble] x4 | x4 | x4 | x4 |[K:bass] x4 | x4 | x4 | x4 | %246
 x4 | x4 | x4 | x4 | x4 | x4 | x4 | x4 | D,, z z2 | x4 | G,, x x2 | x4 | x4 | x4 | x4 | x4 | x4 | %263
 x4 | x4 | x4 | x4 | x4 | x4 | x4 | x4 | x4 | x4 | x4 | x4 | x4 | x4 | x4 | x4 | x4 | x4 | x4 | %282
 x4 | x4 | x4 | x4 | x4 | x4 | x4 | x4 | x4 | x4 | x4 | x4 | x4 | x[K:treble] x3 |[K:bass] x4 | %297
 x4 | x4 | x4 | x4 | x4 | x4 | x4 | x4 | x4 | x4 | x4 | x4 | x4 | x4 | x4 | x4 | x4 | x4 | x4 | %316
 x4 | x4 | x4 | x4 | x4 | x4 | x4 | x4 | x4 | x4 | x4 | x4 | x4 | x4 | x4 | x4 | x4 | x4 | x4 | %335
 x4 | x4 | x4 | x4 | x4 | x4 | x4 | x4 | x[K:treble] x3 | x[K:bass] x3 | x4 | x4 | x4 | x4 | x4 | %350
 x4 | x4 | x4 | x4 | x4 | x4 | x4 | x4 | x4 | x4 | x4 |[K:treble] x4 | x4 | x2[K:bass] x2 | x4 | %365
 x4 | x4 | x4 | x4 | x4 | x4 | x4 | x4 | x4 | x4 | x4 | x4 | x4 | x4 | x4 | x4 | x4 | x4 | x4 | %384
 x4 | x4 | x4 | x4 | x4 | x4 | x4 | x4 | x4 | x2 [F,,,C,,F,,]2- | [F,,,-C,,F,,-]4 | %395
 (3[F,,,F,,][F,,,C,,][F,,,C,,] [F,,,-C,,F,,-]2 | [F,,,F,,]4 | x2 [F,,,F,,]2- | [F,,,-C,,F,,-]4 | %399
 (3[F,,,F,,][F,,,C,,][F,,,C,,] [F,,,-C,,F,,-]2 | [F,,,F,,]4- | x4 | x4 | x4 | x4 | x4 | x4 | x4 | %408
 x4 | x4 | x4 | x4 | x4 | x4 | x4 | x4 | x4 | x4 | x4 | x4 | x4 | x4 | x4 | x4 | x4 | x4 | x4 | %427
 x4 | x4 | x4 | x4 | x4 | x4 | x4 | x4 | x4 | x4 | x4 | x4 | x4 | x4 | x4 | x4 | x4 | x4 | x4 | %446
 x4 | x4 | x4 | x4 | x4 | x4 | x4 | x4 | x4 | x4 | x4 | x4 | x4 | x4 | x4 | x4 | x4 | x4 | x4 | %465
 x4 | x4 | x4 | x4 | x4 | x4 | x4 | x4 | x4 | x4 | x4 | x4 | x4 | x4 | x4 | x4 | x4 | x4 | x4 | %484
 x4 | x4 | x4 | x4 | x4 | x4 | x4 | x4 | x4 | x4 | x4 | x4 | x4 | x4 | x4 | x4 | x4 | x4 | x4 | %503
 x4 | x4 | x4 | x4 | x4 | x4 | x4 | x4 | x4 |] %512
V:6
 x4 | x4 | x4 | x4 | x4 | x4 | x4 | x4 | x4 | x4 | x4 | x4 | x4 | x4 | x4 | x4 | x4 | x4 | x4 | %19
 x4 | x4 | x4 | x4 | x4 | x4 | x4 | x4 | x4 | x4 | x4 | x4 | x4 | x4 | x4 | x4 | x4 | x4 | x4 | %38
 x4 | x4 | x4 | x4 | x4 | x4 | x4 | x4 | x4 | x4 | x4 | x4 | x4 | x4 | x4 | x4 | x4 | x4 | x4 | %57
 x4 | x4 | x4 | x4 | x4 | x4 | x4 | x4 | x4 | x4 | x4 | x4 | x4 | x4 | x4 | x4 | x4 | x4 | x4 | %76
 x4 | x4 | x4 | x4 | x4 | x4 | x4 | x4 | x4 | x4 | x4 | x4 | x4 | x4 | x4 | x4 |!8va(! x4 | x4 | %94
 x4 | x!8va)! x3 | x4 | x4 | x4 |!8va(! x4 | x4 | x4 | x!8va)! x3 | x4 | x4 |[K:bass] x4 | %106
 x[K:treble] x3 | x4 | x4 | x4 | x2/3!8va(! x10/3 | x4!8va)! | x4 | x4 | x4 | x4 | x4 | x4 | x4 | %119
 x4 | x4 | x4 | x4 | x4 | x4 | x4 | x4 | x4 | x4 | x4 | x4 | x4 | x4 | x4 | x4 | x4 | x4 | x4 :| %138
 x4 | x4 | x4 | x4 | x4 | x4 | x4 | x4 | x4 | A4 | x4 | A4 | x4 | x4 | x4 | x4 | x4 | x4 | x4 | %157
 x4 | x4 | x4 | x4 | x4 | x4 | x4 | x4 | x4 | x4 | x4 | x4 | x4 | x4 | x4 | x4 | x4 |!8va(! x4 | %175
 x4 | x4 | x4 | x!8va)! x3 | x4 | x4 | x4 | x4 | x4 | x4 | x4 | x4 | x4 | x4 | x4 | x4 | x4 | x4 | %193
 x4 | x4 | x4 | x4 | x4 | x4 | x4 | x4 | x4 | x4 | x4 | x4 | x4 | x4 | x4 | x4 | x4 | x4 | x4 | %212
 x4 | x4 | x4 | x4 | x4 | x4 | x4 | x4 |!8va(! x4 | x4 | x4 | x4 | x!8va)! x3 | x4 | x4 | x4 | x4 | %229
 x4 | x4 | x4 | x4 | x4 | x4 | x4 | x4 | x4 | x4 | x4 | x4 | x4 | x4 | x4 | x4 | x4 | x4 | x4 | %248
 x4 | x4 | x4 | x4 | x4 | x4 | x4 | x4 | x4 | x4 | x4 | x4 | x4 | x4 | x4 | x4 | x4 | x4 | x4 | %267
 x4 | x4 | x4 | x4 | x4 | x4 | x4 | x4 | x4 | x4 | x4 | x4 | x4 | x4 | x4 | x4 | x4 | x4 | x4 | %286
 x4 | x4 | x4 | x4 | x4 | x4 | x4 | x4 | x4 | x4 | x4 | x4 | x4 | x4 | x4 | x4 | x4 | x4 | x4 | %305
 x4 | x4 | x4 | x4 | x4 | x4 | x4 | x4 | x4 | x4 | x4 | x4 | x4 | x4 | x4 | x4 | x4 | x4 | x4 | %324
 x4 | x4 | x4 | x4 | x4 | x4 | x4 | x4 | x4 | x4 | x4 | x4 | x4 | x4 | x4 | x4 | x4 | x4 | x4 | %343
 x4 | x4 | x4 | x4 | x4 | x4 | x4 | x4 | x4 | x4 | x4 | x4 | x4 | x4 | x4 | x4 | x4 | x4 | x4 | %362
 x4 | x4 | x4 |!8va(! x4 | x4 | x4 | x4 | x4 | x4 | x4 | x4 | x4 | x!8va)! x3 | x4 | x4 | x4 | x4 | %379
 x4 | x4 | x4 | x4 |[K:bass] x4 | x4 | x[K:treble] x3 | x4 | x4 | x4 | x4 | x4 | x4 | x4 | x4 | %394
 x4 | x4 | x4 | x4 | x4 | x4 | x4 | x4 | x4 | x4 | x4 | x4 | x4 | x4 | x4 | x2[K:bass] x2 | x4 | %411
 x4 | x4 | x[K:treble] x3 | x4 | x4 | x4 | x4 | A4 | x4 | A4 | x4 | x4 | x4 | x4 | x4 | x4 | x4 | %428
 x4 | x4 | x4 | x4 | x4 | x4 | x4 | x4 | x4 | x4 | x4 | x4 | x4 | x4 | x4 | x4 | x4 | x4 | x4 | %447
 x4 | x4 | x4 | x4 | x4 | x4 | x4 | x4 | x4 | x4 | x4 | x4 | x4 | x4 | x4 | x4 | x4 | x4 | x4 | %466
 x4 | x4 | x4 | x4 | x4 | x4 | x4 | x4 | x4 | x4 | x4 | x4 | x4 | x4 | x4 | x4 | x4 | x4 | x4 | %485
 x4 | x4 | x4 | x4 | x4 | x4 | x4 | x4 | x4 | x4 | x4 | x4 | x4 | x4 | x4 | x4 | x4 | x4 | x4 | %504
 x4 | x4 | x4 | x4 | x4 | x4 | x4 | x4 |] %512

